src/svg/forumbee.svg

<svg height="1000" width="857.143" xmlns="http://www.w3.org/2000/svg"><path d="M521.172 83.764q-176.886 67.518 -310.248 202.275t-199.764 312.759q-11.16 -49.662 -11.16 -98.208 0 -116.064 57.195 -214.551t155.403 -155.682 214.272 -57.195q45.756 0 94.302 10.602zm150.102 66.402q51.894 36.27 91.512 86.49 -217.062 63.054 -376.371 223.479t-221.247 377.487q-51.894 -40.176 -86.49 -90.396 62.496 -215.388 220.41 -374.418t372.186 -222.642zm-409.014 744.372q64.17 -198.648 211.761 -347.076t345.681 -214.272q22.32 51.336 30.132 108.81 -162.936 66.96 -287.928 192.51t-191.394 289.044q-57.474 -7.812 -108.252 -29.016zm594.828 32.364q-107.694 -27.9 -204.786 -64.17 -75.33 46.872 -161.82 59.706 60.822 -114.39 152.892 -206.739t205.902 -153.729q-11.718 84.816 -56.358 158.472 36.27 97.65 64.17 206.46z"/></svg>

<svg height="1000" width="857.1" xmlns="http://www.w3.org/2000/svg"><path d="M521.2 83.7Q344.3 151.2 210.9 286T11.2 598.8Q0 549.1 0 500.6 0 384.5 57.2 286T212.6 130.3 426.9 73.1q45.8 0 94.3 10.6zm150.1 66.4q51.9 36.3 91.5 86.5 -217 63.1 -376.4 223.5T165.2 837.6Q113.3 797.4 78.7 747.2 141.2 531.8 299.1 372.8T671.3 150.1zm-409 744.4Q326.5 695.9 474.1 547.4T819.8 333.1q22.3 51.4 30.1 108.9 -163 66.9 -288 192.5t-191.4 289q-57.4 -7.8 -108.2 -29zm594.8 32.4Q749.4 899 652.3 862.7 577 909.6 490.5 922.4 551.3 808 643.4 715.7T849.3 561.9Q837.6 646.8 793 720.4q36.2 97.7 64.1 206.5z"/></svg>
